;FLAVOR:Marlin
;TIME:1681
;Filament used: 1.48797m
;Layer height: 0.32
;MINX:88.189
;MINY:79.145
;MINZ:0.32
;MAXX:112.289
;MAXY:121.037
;MAXZ:43.52
;TARGET_MACHINE.NAME:Creality Ender-3 Pro
;Generated with Cura_SteamEngine 5.10.0

; #################################### 
; #################################### 
; #################################### JULY 2025
; #################################### 
; #################################### 

G92 E0 ; Reset Extruder

; HOME ALL AXIS 
G28 

; PRA FAZER MESH SAMPLES
; G29 

; PRA USAR MESH DA EEPROM em vez de G29
M420 S1 Z10 

; Move Z Axis up a bit during heating to not damage bed
G1 Z10.0 F3000 
G1 X50 Y50 F3000

M104 S175 ; Start heating up the nozzle most of the way
M190 S65.0 ; Start heating the bed, wait until target temperature reached
M109 S225 ; Finish heating the nozzle

;G1 Z10.0 F3000 ; Move Z Axis up little to prevent scratching of Heat Bed
;G1 X0.1 Y20 Z0.3 F5000.0 ; Move to start position
;G1 X0.1 Y200.0 Z0.3 F1500.0 E15 ; Draw the first line
;G1 X0.4 Y200.0 Z0.3 F5000.0 ; Move to side a little
;G1 X0.4 Y20 Z0.3 F1500.0 E30 ; Draw the second line

G92 E0 ; Reset Extruder
;G1 Z2.0 F3000 ; Move Z Axis up little to prevent scratching of Heat Bed
;G1 X5 Y20 Z0.3 F5000.0 ; Move over to prevent blob squish
M82 ;absolute extrusion mode
G92 E0
G92 E0
G1 F1500 E-6.5
;LAYER_COUNT:136
;LAYER:0
M107
G0 F1200 X92.965 Y83.101 Z0.32
;TYPE:SKIRT
G1 F1500 E0
G1 F1200 X93.33 Y82.795 E0.03042
G1 X93.758 Y82.545 E0.06207
G1 X95.791 Y81.858 E0.19911
G1 X96.229 Y81.81 E0.22725
G1 X96.691 Y81.863 E0.25694
G1 X96.89 Y81.933 E0.27041
G1 X97.358 Y82.225 E0.30564
G1 X97.495 Y82.353 E0.31761
G1 X98.983 Y84.44 E0.48129
G1 X99.269 Y84.751 E0.50828
G1 X99.5 Y85.241 E0.54287
G1 X99.626 Y85.856 E0.58296
G1 X99.857 Y88.142 E0.72968
G1 X99.792 Y88.685 E0.76461
G1 X99.521 Y89.221 E0.80296
G1 X99.129 Y89.59 E0.83734
G1 X97.42 Y90.632 E0.96516
G1 X97.126 Y90.741 E0.98519
G1 X98.072 Y92.499 E1.11267
G1 X98.268 Y92.879 E1.13998
G1 X98.464 Y93.306 E1.16998
G1 X98.92 Y96.075 E1.34919
G1 X100.335 Y96.198 E1.43989
G1 X101.75 Y96.075 E1.53059
G1 X102.206 Y93.304 E1.70993
G1 X102.398 Y92.883 E1.73948
G1 X102.527 Y92.688 E1.75441
G1 X102.625 Y92.435 E1.77173
G1 X103.597 Y90.639 E1.90215
G1 X101.882 Y89.592 E2.03046
G1 X101.482 Y89.207 E2.06591
G1 X101.218 Y88.671 E2.10407
G1 X101.163 Y88.137 E2.13835
G1 X101.399 Y85.712 E2.29394
G1 X101.622 Y84.997 E2.34177
G1 X101.894 Y84.598 E2.37261
G1 X102.098 Y84.391 E2.39117
G1 X103.514 Y82.427 E2.54579
G1 X103.834 Y82.141 E2.57319
G1 X104.238 Y81.916 E2.60272
G1 X104.44 Y81.856 E2.61618
G1 X104.891 Y81.826 E2.64504
G1 X105.212 Y81.858 E2.66564
G1 X107.262 Y82.561 E2.80404
G1 X107.78 Y82.831 E2.84134
G1 X108.277 Y83.391 E2.88916
G1 X108.463 Y83.869 E2.92191
G1 X108.837 Y85.848 E3.05053
G1 X108.927 Y86.814 E3.11248
G1 X108.827 Y88.725 E3.23468
G1 X108.725 Y89.09 E3.25889
G1 X110.379 Y90.325 E3.3907
G1 X110.73 Y90.73 E3.42493
G1 X110.823 Y90.893 E3.43691
G1 X111.085 Y91.683 E3.49006
G1 X112.106 Y97.786 E3.88522
G1 X112.205 Y104.759 E4.33055
G1 X112.289 Y105.509 E4.37875
G1 X112.203 Y106.091 E4.41632
G1 X112.056 Y106.428 E4.43979
G1 X111.773 Y106.844 E4.47192
G1 X105.411 Y114.565 E5.1108
G1 X105.058 Y114.931 E5.14328
G1 X104.623 Y115.222 E5.1767
G1 X104.857 Y115.719 E5.21178
G1 X104.989 Y116.326 E5.25145
G1 X104.74 Y118.672 E5.4021
G1 X104.505 Y119.369 E5.44907
G1 X104.26 Y119.764 E5.47876
G1 X103.919 Y120.108 E5.50969
G1 X103.598 Y120.28 E5.53294
G1 X103.08 Y120.442 E5.5676
G1 X100.318 Y121.028 E5.74791
G1 X99.842 Y121.037 E5.77831
G1 X97.279 Y120.409 E5.94682
G1 X96.928 Y120.304 E5.97022
G1 X96.518 Y120.073 E6.00027
G1 X96.158 Y119.744 E6.03142
G1 X95.966 Y119.409 E6.05607
G1 X95.717 Y118.675 E6.10557
G1 X95.466 Y116.321 E6.25675
G1 X95.605 Y115.702 E6.29726
G1 X95.897 Y115.126 E6.3385
G1 X95.624 Y114.954 E6.35911
G1 X95.163 Y114.446 E6.40291
G1 X88.819 Y106.59 E7.04774
G1 X88.537 Y106.116 E7.08297
G1 X88.366 Y105.569 E7.11956
G1 X88.346 Y105.38 E7.1317
G1 X88.457 Y104.213 E7.20656
G1 X88.582 Y97.511 E7.63462
G1 X89.563 Y91.788 E8.00542
G1 X89.825 Y90.98 E8.05966
G1 X90.112 Y90.501 E8.09532
G1 X90.237 Y90.363 E8.10721
G1 X92.046 Y89.014 E8.25132
G1 X92.246 Y88.914 E8.2656
G1 X92.118 Y86.768 E8.40288
G1 X92.212 Y85.818 E8.46385
G1 X92.606 Y83.741 E8.59885
G1 X92.965 Y83.101 E8.64571
G0 X93.341 Y83.413
G1 X93.639 Y83.163 E8.67055
G1 X93.954 Y82.986 E8.69362
G1 X95.898 Y82.329 E8.82466
G1 X96.226 Y82.293 E8.84574
G1 X96.636 Y82.34 E8.87209
G1 X97.104 Y82.632 E8.90732
G1 X98.61 Y84.744 E9.07296
G1 X98.867 Y85.024 E9.09723
G1 X99.041 Y85.393 E9.12329
G1 X99.148 Y85.904 E9.15663
G1 X99.374 Y88.137 E9.29995
G1 X99.325 Y88.544 E9.32613
G1 X99.13 Y88.931 E9.35381
G1 X98.839 Y89.204 E9.37929
G1 X97.17 Y90.222 E9.50413
G1 X96.731 Y90.365 E9.53361
G1 X96.39 Y90.388 E9.55544
G1 X97.621 Y92.664 E9.72068
G1 X97.709 Y92.905 E9.73706
G1 X97.832 Y93.079 E9.75067
G1 X98 Y93.445 E9.77639
G1 X98.506 Y96.52 E9.9754
G1 X100.335 Y96.68 E10.09264
G1 X102.164 Y96.52 E10.20989
G1 X102.67 Y93.444 E10.40896
G1 X102.835 Y93.082 E10.43436
G1 X102.958 Y92.91 E10.44787
G1 X103.047 Y92.663 E10.46463
G1 X104.286 Y90.374 E10.63085
G1 X103.846 Y90.228 E10.66045
G1 X102.177 Y89.21 E10.7853
G1 X101.876 Y88.92 E10.81199
G1 X101.686 Y88.534 E10.83946
G1 X101.645 Y88.139 E10.86482
G1 X101.873 Y85.804 E11.01464
G1 X102.057 Y85.212 E11.05423
G1 X102.291 Y84.869 E11.08075
G1 X102.462 Y84.706 E11.09583
G1 X103.872 Y82.751 E11.24976
G1 X104.115 Y82.534 E11.27057
G1 X104.472 Y82.335 E11.29667
G1 X104.923 Y82.305 E11.32553
G1 X105.11 Y82.33 E11.33758
G1 X107.04 Y82.987 E11.46777
G1 X107.48 Y83.216 E11.49945
G1 X107.861 Y83.645 E11.53609
G1 X107.999 Y84.001 E11.56047
G1 X108.365 Y85.937 E11.68629
G1 X108.449 Y86.858 E11.74535
G1 X108.351 Y88.646 E11.8597
G1 X108.242 Y89.033 E11.88538
G1 X108.073 Y89.283 E11.90465
G1 X108.359 Y89.416 E11.92479
G1 X110.051 Y90.679 E12.05962
G1 X110.367 Y91.044 E12.09045
G1 X110.629 Y91.834 E12.14361
G1 X111.626 Y97.793 E12.52943
G1 X111.725 Y104.789 E12.97624
G1 X111.805 Y105.5 E13.02193
G1 X111.737 Y105.959 E13.05156
G1 X111.659 Y106.158 E13.06521
G1 X111.376 Y106.574 E13.09734
G1 X105.065 Y114.232 E13.73104
G1 X104.746 Y114.563 E13.7604
G1 X104.395 Y114.797 E13.78734
G1 X103.559 Y115.045 E13.84302
G1 X103.917 Y115.202 E13.86799
G1 X104.224 Y115.501 E13.89535
G1 X104.4 Y115.874 E13.92169
G1 X104.504 Y116.353 E13.95299
G1 X104.269 Y118.567 E14.09517
G1 X104.068 Y119.163 E14.13534
G1 X103.879 Y119.467 E14.1582
G1 X103.63 Y119.719 E14.18082
G1 X103.453 Y119.822 E14.1939
G1 X102.98 Y119.972 E14.22559
G1 X100.261 Y120.549 E14.40309
G1 X99.894 Y120.556 E14.42653
G1 X97.417 Y119.949 E14.58939
G1 X97.114 Y119.858 E14.60959
G1 X96.803 Y119.683 E14.63238
G1 X96.536 Y119.439 E14.65548
G1 X96.421 Y119.255 E14.66933
G1 X96.188 Y118.568 E14.71566
G1 X95.951 Y116.349 E14.85817
G1 X96.059 Y115.868 E14.88965
G1 X96.267 Y115.459 E14.91895
G1 X96.59 Y115.169 E14.94667
G1 X97.01 Y115.014 E14.97526
G1 X96.257 Y114.786 E15.02551
G1 X95.935 Y114.583 E15.04981
G1 X95.536 Y114.144 E15.0877
G1 X89.231 Y106.344 E15.72818
G1 X88.978 Y105.919 E15.75977
G1 X88.824 Y105.426 E15.79275
G1 X88.937 Y104.242 E15.8687
G1 X89.055 Y97.592 E16.29344
G1 X90.02 Y91.936 E16.65984
G1 X90.265 Y91.18 E16.71059
G1 X90.524 Y90.748 E16.74276
G1 X92.333 Y89.399 E16.88686
G1 X92.698 Y89.238 E16.91234
G1 X92.924 Y89.195 E16.92703
G1 X92.719 Y88.786 E16.95625
G1 X92.597 Y86.739 E17.0872
G1 X92.684 Y85.908 E17.14056
G1 X93.064 Y83.907 E17.27062
G1 X93.341 Y83.413 E17.30679
G0 X94.109 Y84.001
G1 X94.346 Y83.868 E17.32415
G1 X96.159 Y83.255 E17.44636
G1 X96.296 Y83.25 E17.45512
G1 X96.431 Y83.343 E17.46558
G1 X97.87 Y85.362 E17.62391
G1 X98.047 Y85.531 E17.63954
G1 X98.115 Y85.652 E17.64841
G1 X98.192 Y86 E17.67117
G1 X98.413 Y88.18 E17.81109
G1 X98.387 Y88.314 E17.81981
G1 X98.299 Y88.409 E17.82808
G1 X96.762 Y89.346 E17.94303
G1 X96.48 Y89.44 E17.96201
G1 X96.311 Y89.429 E17.97283
G1 X95.739 Y89.169 E18.01295
G1 X93.853 Y88.752 E18.1363
G1 X93.733 Y88.686 E18.14505
G1 X93.665 Y88.532 E18.1558
G1 X93.561 Y86.771 E18.26845
G1 X93.61 Y86.349 E18.29558
G1 X93.628 Y86.088 E18.31229
G1 X93.994 Y84.163 E18.43742
G1 X94.109 Y84.001 E18.45011
G1 F1500 E11.95011
G0 F1200 X93.611 Y83.907
G0 X93.188 Y86.305
G0 X93.135 Y86.734
G0 X93.279 Y89.053
G0 X94.955 Y89.644
G0 X94.973 Y90.067
G1 F1500 E18.45011
G1 F1200 X95.106 Y90.101 E18.45887
G1 X95.194 Y90.193 E18.467
G1 X96.777 Y93.12 E18.6795
G1 X96.859 Y93.417 E18.69918
G1 X96.979 Y93.517 E18.70915
G1 X97.062 Y93.662 E18.71982
G1 X97.678 Y97.412 E18.96251
G1 X100.335 Y97.644 E19.13283
G1 X102.992 Y97.411 E19.30315
G1 X103.607 Y93.664 E19.54563
G1 X103.689 Y93.52 E19.55622
G1 X103.809 Y93.418 E19.56627
G1 X103.891 Y93.121 E19.58595
G1 X105.476 Y90.193 E19.79857
G1 X105.573 Y90.096 E19.80733
G1 X105.698 Y90.067 E19.81552
G1 X107.441 Y90.144 E19.92694
G1 X107.634 Y90.138 E19.93927
G1 X107.785 Y90.186 E19.94939
G1 X109.436 Y91.418 E20.08094
G1 X109.518 Y91.528 E20.0897
G1 X109.683 Y91.994 E20.12127
G1 X110.666 Y97.807 E20.49775
G1 X110.765 Y104.85 E20.94756
G1 X110.844 Y105.545 E20.99223
G1 X110.805 Y105.706 E21.00281
G1 X110.582 Y106.034 E21.02814
G1 X104.373 Y113.566 E21.65149
G1 X104.054 Y113.897 E21.68084
G1 X103.337 Y114.11 E21.72861
G1 X100.294 Y114.966 E21.93047
G1 X100.159 Y114.965 E21.9391
G1 X96.599 Y113.887 E22.17663
G1 X96.282 Y113.54 E22.20664
G1 X90.055 Y105.852 E22.83844
G1 X89.831 Y105.476 E22.86638
G1 X89.798 Y105.33 E22.87594
G1 X89.897 Y104.3 E22.94202
G1 X90.001 Y97.752 E23.36023
G1 X90.934 Y92.232 E23.71773
G1 X91.162 Y91.527 E23.76505
G1 X91.246 Y91.409 E23.7743
G1 X92.865 Y90.201 E23.90329
G1 X92.999 Y90.153 E23.91238
G1 X94.973 Y90.067 E24.03856
G0 X95.587 Y89.627
G1 X93.749 Y89.221 E24.15876
G1 X93.502 Y89.107 E24.17614
G1 X93.354 Y88.98 E24.18859
G1 X93.192 Y88.658 E24.21161
G1 X93.079 Y86.755 E24.33335
G1 X93.133 Y86.294 E24.36299
G1 X93.156 Y85.998 E24.38195
G1 X93.522 Y84.073 E24.50708
G1 X93.718 Y83.723 E24.5327
G1 X93.874 Y83.582 E24.54612
G1 X94.15 Y83.427 E24.56634
G1 X96.005 Y82.8 E24.69138
G1 X96.278 Y82.77 E24.70892
G1 X96.471 Y82.803 E24.72142
G1 X96.768 Y82.989 E24.7438
G1 X98.237 Y85.049 E24.90537
G1 X98.465 Y85.296 E24.92684
G1 X98.584 Y85.548 E24.94464
G1 X98.67 Y85.952 E24.97101
G1 X98.891 Y88.132 E25.11094
G1 X98.858 Y88.405 E25.1285
G1 X98.739 Y88.64 E25.14532
G1 X98.549 Y88.819 E25.16199
G1 X96.966 Y89.784 E25.28039
G1 X96.582 Y89.909 E25.30617
G1 X96.204 Y89.908 E25.33031
G1 X95.587 Y89.627 E25.37361
G1 F1500 E18.87361
G0 F1200 X96.363 Y89.915
G0 X102.171 Y88.271
G0 X102.627 Y88.314
G1 F1500 E25.37361
G1 F1200 X102.605 Y88.188 E25.38178
G1 X102.82 Y85.989 E25.52287
G1 X102.952 Y85.565 E25.55123
G1 X103.188 Y85.341 E25.57201
G1 X104.619 Y83.356 E25.72828
G1 X104.728 Y83.272 E25.73706
G1 X104.891 Y83.269 E25.74747
G1 X106.73 Y83.895 E25.87153
G1 X106.939 Y84.016 E25.88695
G1 X107.055 Y84.179 E25.89973
G1 X107.421 Y86.115 E26.02555
G1 X107.437 Y86.365 E26.04155
G1 X107.492 Y86.873 E26.07418
G1 X107.396 Y88.537 E26.18062
G1 X107.349 Y88.666 E26.18938
G1 X107.208 Y88.757 E26.2001
G1 X105.426 Y89.149 E26.31662
G1 X104.697 Y89.44 E26.36674
G1 X104.538 Y89.446 E26.3769
G1 X104.255 Y89.352 E26.39595
G1 X102.719 Y88.416 E26.51081
G1 X102.627 Y88.314 E26.51959
G1 F1500 E20.01959
G0 F1200 X102.387 Y88.709
G0 X103.479 Y92.99
G0 X105.305 Y89.631
G0 X107.852 Y89.709
G0 X109.847 Y91.198
G0 X110.092 Y91.866
G0 X111.092 Y97.786
G0 X111.291 Y105.74
G0 X110.931 Y106.278
G0 X104.694 Y113.843
G0 X104.278 Y114.271
G0 X101.208 Y115.119
G0 X100.255 Y115.365
G1 F1500 E26.51959
G1 F1200 X100.704 Y115.415 E26.54844
G1 X103.293 Y115.962 E26.71742
G1 X103.413 Y116.028 E26.72616
G1 X103.474 Y116.132 E26.73386
G1 X103.534 Y116.407 E26.75184
G1 X103.327 Y118.355 E26.87694
G1 X103.175 Y118.804 E26.90721
G1 X103.082 Y118.933 E26.91736
G1 X102.78 Y119.032 E26.93766
G1 X100.061 Y119.609 E27.11516
G1 X97.691 Y119.029 E27.27097
G1 X97.44 Y118.954 E27.2877
G1 X97.303 Y118.864 E27.29817
G1 X97.13 Y118.354 E27.33256
G1 X96.923 Y116.408 E27.45753
G1 X96.984 Y116.132 E27.47558
G1 X97.058 Y116.016 E27.48437
G1 X97.165 Y115.963 E27.49199
G1 X99.778 Y115.41 E27.66255
G1 X100.255 Y115.365 E27.69315
G0 X101.567 Y115.106
G1 X103.392 Y115.492 E27.81227
G1 X103.644 Y115.607 E27.82996
G1 X103.827 Y115.785 E27.84626
G1 X103.943 Y116.03 E27.86357
G1 X104.019 Y116.38 E27.88645
G1 X103.798 Y118.461 E28.02008
G1 X103.63 Y118.958 E28.05359
G1 X103.471 Y119.214 E28.07283
G1 X103.306 Y119.365 E28.08711
G1 X102.88 Y119.502 E28.11569
G1 X100.161 Y120.079 E28.29319
G1 X99.947 Y120.075 E28.30686
G1 X97.554 Y119.489 E28.46419
G1 X97.303 Y119.414 E28.48092
G1 X97.039 Y119.265 E28.50028
G1 X96.876 Y119.101 E28.51504
G1 X96.659 Y118.461 E28.5582
G1 X96.437 Y116.379 E28.69191
G1 X96.515 Y116.028 E28.71487
G1 X96.653 Y115.758 E28.73423
G1 X96.845 Y115.586 E28.7507
G1 X97.066 Y115.493 E28.76601
G1 X98.939 Y115.097 E28.88826
G1 X96.46 Y114.346 E29.05367
G1 X96.245 Y114.211 E29.06988
G1 X95.909 Y113.842 E29.10175
G1 X89.643 Y106.098 E29.73789
G1 X89.419 Y105.722 E29.76584
G1 X89.311 Y105.376 E29.78899
G1 X89.417 Y104.271 E29.85988
G1 X89.528 Y97.672 E30.28134
G1 X90.477 Y92.084 E30.6433
G1 X90.705 Y91.379 E30.69062
G1 X90.887 Y91.077 E30.71313
G1 X92.578 Y89.816 E30.84784
G1 X92.892 Y89.677 E30.86977
G1 X94.952 Y89.587 E31.00145
G1 X95.225 Y89.636 E31.01916
G1 X95.453 Y89.769 E31.03601
G1 X95.616 Y89.965 E31.05229
G1 X97.199 Y92.892 E31.26479
G1 X97.282 Y93.145 E31.2818
G1 X97.396 Y93.279 E31.29303
G1 X97.536 Y93.584 E31.31446
G1 X98.092 Y96.966 E31.53334
G1 X100.335 Y97.162 E31.67712
G1 X102.578 Y96.966 E31.8209
G1 X103.133 Y93.586 E32.03964
G1 X103.272 Y93.282 E32.06098
G1 X103.385 Y93.148 E32.07218
G1 X103.469 Y92.892 E32.08938
G1 X105.054 Y89.964 E32.302
G1 X105.253 Y89.735 E32.32137
G1 X104.846 Y89.896 E32.34932
G1 X104.482 Y89.934 E32.3727
G1 X104.052 Y89.791 E32.40163
G1 X102.469 Y88.826 E32.52003
G1 X102.271 Y88.635 E32.53759
G1 X102.154 Y88.397 E32.55453
G1 X102.127 Y88.141 E32.57097
G1 X102.347 Y85.896 E32.71502
G1 X102.494 Y85.422 E32.74671
G1 X102.622 Y85.217 E32.76215
G1 X102.824 Y85.025 E32.77994
G1 X104.23 Y83.075 E32.93346
G1 X104.435 Y82.892 E32.95101
G1 X104.61 Y82.807 E32.96343
G1 X104.955 Y82.784 E32.98551
G1 X106.885 Y83.441 E33.11571
G1 X107.179 Y83.601 E33.13708
G1 X107.446 Y83.901 E33.16273
G1 X107.527 Y84.09 E33.17586
G1 X107.893 Y86.026 E33.30168
G1 X107.971 Y86.901 E33.35778
G1 X107.875 Y88.565 E33.46422
G1 X107.8 Y88.83 E33.48181
G1 X107.697 Y88.996 E33.49428
G1 X107.405 Y89.205 E33.51721
G1 X105.678 Y89.585 E33.63014
G1 X107.779 Y89.681 E33.76445
G1 X108.072 Y89.801 E33.78467
G1 X109.723 Y91.033 E33.91622
G1 X109.942 Y91.286 E33.93759
G1 X110.156 Y91.914 E33.97995
G1 X111.146 Y97.8 E34.36111
G1 X111.245 Y104.819 E34.80938
G1 X111.321 Y105.491 E34.85257
G1 X111.262 Y105.888 E34.8782
G1 X110.979 Y106.304 E34.91033
G1 X104.719 Y113.899 E35.53886
G1 X104.4 Y114.23 E35.56821
G1 X104.191 Y114.357 E35.58383
G1 X103.467 Y114.572 E35.63206
G1 X101.567 Y115.106 E35.7581
G1 F1500 E29.2581
;MESH:LowPoly Bunny.stl
G0 F1200 X101.32 Y116.269
G0 X101.774 Y117.327
G0 X100 Y118.11
;TYPE:WALL-INNER
G1 F1500 E35.7581
G1 F1200 X100.083 Y118.13 E35.76355
G1 X101.943 Y117.735 E35.88498
G1 X102.003 Y117.16 E35.92189
G1 X100.304 Y116.804 E36.03275
G1 X99.982 Y116.835 E36.05341
G1 X98.449 Y117.161 E36.15349
G1 X98.513 Y117.747 E36.19114
G1 X100 Y118.11 E36.28888
G0 X100 Y118.603
G1 X100.076 Y118.622 E36.29389
G1 X102.384 Y118.132 E36.44456
G1 X102.526 Y116.779 E36.53143
G1 X100.546 Y116.365 E36.66061
G1 X100.224 Y116.329 E36.6813
G1 X99.908 Y116.361 E36.70158
G1 X97.926 Y116.781 E36.83096
G1 X98.072 Y118.133 E36.9178
G1 X100 Y118.603 E37.04453
G0 X100 Y119.097
;TYPE:WALL-OUTER
G1 X100.068 Y119.114 E37.04901
G1 X102.754 Y118.545 E37.22434
G1 X102.852 Y118.27 E37.24298
G1 X103.046 Y116.398 E37.36317
G1 X100.622 Y115.89 E37.52133
G1 X100.226 Y115.846 E37.54677
G1 X99.834 Y115.886 E37.57193
G1 X97.406 Y116.401 E37.73043
G1 X97.604 Y118.274 E37.85071
G1 X97.694 Y118.528 E37.86792
G1 X100 Y119.097 E38.01959
